src/icons/logo.svg

<svg xmlns="http://www.w3.org/2000/svg" viewBox="0 0 95.32 157.157" height="57.157" width="25.32"><svg xmlns="http://www.w3.org/2000/svg" xmlns:xlink="http://www.w3.org/1999/xlink" viewBox="33.942 23.625 32.086 52.902" xml:space="preserve" height="157.157" width="95.32" class="icon-icon-0" data-fill-palette-color="accent"><path fill-rule="evenodd" clip-rule="evenodd" d="M52.9 35.3c.3.1.4.1.6-.1.1-.1.2-.1.3-.2s.2-.1.3-.2.2-.1.3-.2.2-.1.3-.2.5-.4.7-.5c.1-.1.3-.3.4-.3s.2-.2.3-.2.2-.2.3-.2.2-.2.3-.2l.2-.1.1-.2h.2l.1-.2h.2l.1-.2c.2-.1.3-.1.5-.2.1 0 0-.1.1-.1l.2-.1.1-.2h.2l.1-.2h.2l.1-.2h.2l.1-.2h.2l.1-.2c.2-.1.4-.1.7-.3l.1-.1c.1-.1.3 0 .4-.1l.1-.2h.2c.1-.1.1-.3.2-.3.5-.3 1-.6 1.4-.7 1-.1 1.6.5 2.4 1.1.1.2-.1.4 0 .6s.1.7 0 1.1v.2c-.1.1-.2.3-.3.5 0 .1 0 .2-.1.3 0 .1-.2.1-.2.1-.2.3-.4.5-.6.8s-.3.6-.5.8c-.3.3-.8.4-1.2.7-.1.1-.2.3-.4.4-.1.1-.5.3-.7.4-.1 0 0 .1-.1.1s-.2.2-.3.2-.3.2-.5.3c-.1.1-.1.2-.2.2h-.2l-.1.2c-.1.1-.2 0-.3.1s-.1.2-.2.3-.2 0-.3.1c-.2.1-.3.4-.5.5-.1.1-.1.1-.2.1s-.2.2-.3.3h-.2l-.1.2h-.2l-.1.2h-.2l-.1.2c-.1.1-.2 0-.3.1-.2.1-.3.4-.5.5l-.9.9c-.1.2-.4.2-.4.5.1.4.2.5.5.7.1 0 .2.1.2.1l.4.4c.1.1.2 0 .3.1.1 0 .1.2.1.2.1.1.2 0 .3.1.1 0 .1.2.2.2.1.1.3.2.4.3s.2 0 .3.1.2.4.4.6c.4.1.8.2 1.1.5l.4.4c.1.1.1.2.2.2h.2c.1.1.3.2.5.4.1.1.1.2.2.2h.2c.1.1.3.3.5.4.1.1.1.2.2.2h.2c.1.1.3.3.5.4.1 0 .2 0 .3.1s.3.4.5.6c.1 0 .2.2.2.2h.2v.1c.1.1.2 0 .3.1.1 0 .1.2.2.2.1.1.2 0 .3.1.2.1.3.4.5.6.1.1.3.2.4.3s0 .3.1.4l.2.1v.2l.2.1c.1.2 0 .3.2.4.1.4-.1.7-.1 1 .1 0 .1.1.1.2s.2.3.1.6c-.1.4-.8 1-1.2 1.2-.1.3-.3.5-.5.7-.2.1-.5.1-.7.2.1 0-.6.3-.7.1-.1-.1-.1-.1-.3-.1h-.2c-.1-.1-.9-.1-1.2-.2 0 0 0-.1-.1-.1s-.2-.2-.4-.2l-.3-.1-.3-.3c-.1 0-.1-.1-.2-.1l-.3-.1c.4.3.4.1.2 0l-.2-.1-.3-.3h-.2l-.1-.2h-.2c-.1-.1-.1-.3-.3-.3l-.2-.1-.3-.3c-.1 0-.1-.1-.2-.1-.1-.1-.3-.3-.4-.3s-.1-.2-.2-.2H57l-.3-.3c-.1 0-.1-.1-.2-.1l-.1-.1c-.4-.2-.8-.1-1.1-.3-.1 0 0-.1-.1-.1-.2 0-.2-.3-.4-.4h-.2c-.1-.1-.1-.2-.3-.3-.1-.1-.2-.1-.3-.2s-.2-.1-.3-.2-.5-.4-.8-.4c-.2.1-.2.2-.3.4s-.1.4-.1.6c-.1.6 0 1.2-.1 2 0 .3-.1.7-.1 1.2 0 .3.1.3 0 .6 0 .1.2.9 0 1-.3.3-.3 1-.3 1.4s0 .8-.1 1.2c0 .4-.2.8-.2 1.1-.1 1 0 1.9 0 2.9v.2c-.1.6 0 1.8 0 2.7 0 .3-.1.5-.1.7 0 .3.1.6.1.9.1.9.1 2 .1 3 0 .8 0 1.7-.1 2.4-.1.3 0 .8-.1 1.3 0 .3-.1.6-.2.8-.2.7-.3 1.7-.3 2.7-.1.1-.2.1-.3.2l-.1.2c-.1.1-.3 0-.4.1-.2.1-.5.3-1 .2-.2 0-.7-.4-1.1-.5H48l-.3-.1c-.1-.2-.3-.2-.5-.4l-.4-.4c-.4-.3-.6-.5-.7-.8-.2-.4-.1-.8-.1-1.3-.1-1.1-.1-2.1-.1-3.4 0 0 .1 0 .1-.1 0 0-.1 0-.1-.1v-.3c0-1.3 0-2.6.1-4 0-.2.1-.4.1-.6.1-1.9-.2-4.2 0-6.2.1-.9.1-1.7.1-2.6 0-1.9-.2-3.8 0-5.4.1-.9.5-1.7 0-2.5-.4-.2-.7.3-1 .3-.1 0-.2.2-.3.2s-.1.1-.2.1-.1.2-.2.2h-.2v.1c-.1 0-.2 0-.3.1l-.1.2c-.1.1-.2 0-.3.1l-.1.2c-.1.1-.2 0-.3.1s-.2.4-.4.5c-.1.1-.2 0-.3.1l-.1.2c-.1.1-.2 0-.3.1s-.3.4-.5.5c-.1.1-.3.2-.4.3s-.1.2-.2.2h-.2c-.5.5-.5.7-.8.7-.2 0-.2.3-.4.3-.1 0-.1.2-.2.2h-.2v.1c-.3.2-.6.1-.9.2 0 0 0 .1-.1.1-.2 0-.8.4-1.2.3 0 0 0-.1-.1-.1-.2 0-.3 0-.5-.1-.1 0-.3 0-.4-.1l-.4-.4c-.1-.1-.3-.3-.4-.5-.2 0-.2 0-.2-.2 0-.1-.1-.1-.1-.1-.1-.4-.1-1.5.2-2 0-.1.1 0 .1-.1s.3-.4.4-.5h.2c.1-.1.1-.2.3-.3s.6-.3.8-.5c.3-.3.4-.6.8-.8.1 0 .1-.1.2-.1.1-.1.2-.1.3-.2s.2-.1.3-.2.3-.1.3-.1c.1-.1.1-.3.3-.3.1 0 .2-.2.3-.2s.2-.2.3-.2.3-.3.5-.4c.2-.2.5-.3.8-.5s.9-.6 1.4-1c.1 0 0-.1.1-.1s.2-.2.4-.2c.1 0 .2-.2.3-.2s.3-.1.4-.2c.6-.4 1.6-.7 1.1-1.6 0-.1-.1 0-.1-.1 0-.2-.6-.6-.8-.8l-.6-.6c-.3-.2-.6-.2-.8-.4-.1-.3-.5-.6-.7-.9-.1-.1-.2-.3-.3-.5-.1-.1-.4-.4-.6-.5-.1-.1-.5-.4-.7-.5-.1 0-.2 0-.3-.1l-.1-.2c-.1-.1-.2-.1-.4-.2-.1-.1-.2-.1-.3-.2l-.2-.2c-.2-.1-.4-.3-.6-.4l-.1-.2c-.1-.1-.2-.1-.4-.2l-.1-.2c-.1-.1-.2-.1-.4-.2l-.1-.2c-.1-.1-.3-.1-.4-.2l-.4-.4c-.1-.1 0-.2-.1-.3 0 0-.2 0-.2-.1-.1-.2-.2-.3-.3-.5-.1-.1-.3-.2-.4-.3s0-.2-.1-.3-.5-.3-.6-.5c-.1-.1 0-.2-.1-.3l-.2-.1c-.1-.1-.1-.2-.1-.3l-.1-.4c-.3-.2-.1-2.1 0-2.5 0-.1.1 0 .1-.1s.2-.2.3-.3.2-.2.4-.3c.1 0 .1-.1.2-.1s.4-.3.6-.3c.1 0 .2-.2.3-.2s.3-.2.6-.2c1-.1 1.7.6 2.8.4l.3.3c.5.4 1 1 1.6 1.5.3.2.5.5.8.7.1.1.2.1.3.2 0 0 .4.4.5.4l.2.1.1.2h.2c.1.1.1.2.2.3h.2c.1.1.1.2.3.3s.5.3.7.5c.1.1.2.1.3.2l.1.2h.2c.1.1.1.2.2.3h.2c.1.1.4.5.7.5.4-.5.3-1 .4-1.7.1-1.7-.1-4.1.2-5.7 0-.2.1-.5.2-.7 0-.1 0-.3.1-.4 0-.1.2-.1.2-.2.2-.3.5-.6.8-.8.1-.1.2-.3.3-.3.1-.1.4-.1.6-.1.1 0 .2-.2.2-.2h.3c.3-.1.5-.1 1.1 0 .3 0 .5 0 .7.1 0 0 0 .1.1.1s.9.7.9.9c0 0 .1.1.1.2.1.2.1.3.2.5 0 .1.1.2.1.3.1.3.3 1.7.2 2.4-.1.5-.1 1.7-.1 2.6-.3 1.3-.3 3-.2 4.5" fill="#F4743B" data-fill-palette-color="accent"/></svg></svg>

<svg xmlns:xlink="http://www.w3.org/1999/xlink" xmlns="http://www.w3.org/2000/svg" viewBox="0 0 95.3195011526512 157.15721427301588" height="57.15721427301588" width="25.3195011526512">
  <g>
    <svg xmlns="http://www.w3.org/2000/svg" xmlns:xlink="http://www.w3.org/1999/xlink" version="1.1" x="0" y="0" viewBox="33.94155502319336 23.625 32.08644485473633 52.902252197265625" enable-background="new 0 0 100 100" xml:space="preserve" height="157.15721427301588" width="95.3195011526512" class="icon-icon-0" data-fill-palette-color="accent" id="icon-0">
      <path fill-rule="evenodd" clip-rule="evenodd" d="M52.9 35.3C53.2 35.4 53.3 35.4 53.5 35.2 53.6 35.1 53.7 35.1 53.8 35S54 34.9 54.1 34.8 54.3 34.7 54.4 34.6 54.6 34.5 54.7 34.4 55.2 34 55.4 33.9C55.5 33.8 55.7 33.6 55.8 33.6S56 33.4 56.1 33.4 56.3 33.2 56.4 33.2 56.6 33 56.7 33L56.9 32.9 57 32.7H57.2L57.3 32.5H57.5L57.6 32.3C57.8 32.2 57.9 32.2 58.1 32.1 58.2 32.1 58.1 32 58.2 32L58.4 31.9 58.5 31.7H58.7L58.8 31.5H59L59.1 31.3H59.3L59.4 31.1H59.6L59.7 30.9C59.9 30.8 60.1 30.8 60.4 30.6L60.5 30.5C60.6 30.4 60.8 30.5 60.9 30.4L61 30.2H61.2C61.3 30.1 61.3 29.9 61.4 29.9 61.9 29.6 62.4 29.3 62.8 29.2 63.8 29.1 64.4 29.7 65.2 30.3 65.3 30.5 65.1 30.7 65.2 30.9S65.3 31.6 65.2 32V32.2C65.1 32.3 65 32.5 64.9 32.7 64.9 32.8 64.9 32.9 64.8 33 64.8 33.1 64.6 33.1 64.6 33.1 64.4 33.4 64.2 33.6 64 33.9S63.7 34.5 63.5 34.7C63.2 35 62.7 35.1 62.3 35.4 62.2 35.5 62.1 35.7 61.9 35.8 61.8 35.9 61.4 36.1 61.2 36.2 61.1 36.2 61.2 36.3 61.1 36.3S60.9 36.5 60.8 36.5 60.5 36.7 60.3 36.8C60.2 36.9 60.2 37 60.1 37H59.9L59.8 37.2C59.7 37.3 59.6 37.2 59.5 37.3S59.4 37.5 59.3 37.6 59.1 37.6 59 37.7C58.8 37.8 58.7 38.1 58.5 38.2 58.4 38.3 58.4 38.3 58.3 38.3S58.1 38.5 58 38.6H57.8L57.7 38.8H57.5L57.4 39H57.2L57.1 39.2C57 39.3 56.9 39.2 56.8 39.3 56.6 39.4 56.5 39.7 56.3 39.8L55.4 40.7C55.3 40.9 55 40.9 55 41.2 55.1 41.6 55.2 41.7 55.5 41.9 55.6 41.9 55.7 42 55.7 42L56.1 42.4C56.2 42.5 56.3 42.4 56.4 42.5 56.5 42.5 56.5 42.7 56.5 42.7 56.6 42.8 56.7 42.7 56.8 42.8 56.9 42.8 56.9 43 57 43 57.1 43.1 57.3 43.2 57.4 43.3S57.6 43.3 57.7 43.4 57.9 43.8 58.1 44C58.5 44.1 58.9 44.2 59.2 44.5L59.6 44.9C59.7 45 59.7 45.1 59.8 45.1H60C60.1 45.2 60.3 45.3 60.5 45.5 60.6 45.6 60.6 45.7 60.7 45.7H60.9C61 45.8 61.2 46 61.4 46.1 61.5 46.2 61.5 46.3 61.6 46.3H61.8C61.9 46.4 62.1 46.6 62.3 46.7 62.4 46.7 62.5 46.7 62.6 46.8S62.9 47.2 63.1 47.4C63.2 47.4 63.3 47.6 63.3 47.6H63.5V47.7C63.6 47.8 63.7 47.7 63.8 47.8 63.9 47.8 63.9 48 64 48 64.1 48.1 64.2 48 64.3 48.1 64.5 48.2 64.6 48.5 64.8 48.7 64.9 48.8 65.1 48.9 65.2 49S65.2 49.3 65.3 49.4L65.5 49.5V49.7L65.7 49.8C65.8 50 65.7 50.1 65.9 50.2 66 50.6 65.8 50.9 65.8 51.2 65.9 51.2 65.9 51.3 65.9 51.4S66.1 51.7 66 52C65.9 52.4 65.2 53 64.8 53.2 64.7 53.5 64.5 53.7 64.3 53.9 64.1 54 63.8 54 63.6 54.1 63.7 54.1 63 54.4 62.9 54.2 62.8 54.1 62.8 54.1 62.6 54.1H62.4C62.3 54 61.5 54 61.2 53.9 61.2 53.9 61.2 53.8 61.1 53.8S60.9 53.6 60.7 53.6L60.4 53.5 60.1 53.2C60 53.2 60 53.1 59.9 53.1L59.6 53C60 53.3 60 53.1 59.8 53L59.6 52.9 59.3 52.6H59.1L59 52.4H58.8C58.7 52.3 58.7 52.1 58.5 52.1L58.3 52 58 51.7C57.9 51.7 57.9 51.6 57.8 51.6 57.7 51.5 57.5 51.3 57.4 51.3S57.3 51.1 57.2 51.1H57L56.7 50.8C56.6 50.8 56.6 50.7 56.5 50.7L56.4 50.6C56 50.4 55.6 50.5 55.3 50.3 55.2 50.3 55.3 50.2 55.2 50.2 55 50.2 55 49.9 54.8 49.8H54.6C54.5 49.7 54.5 49.6 54.3 49.5 54.2 49.4 54.1 49.4 54 49.3S53.8 49.2 53.7 49.1 53.2 48.7 52.9 48.7C52.7 48.8 52.7 48.9 52.6 49.1S52.5 49.5 52.5 49.7C52.4 50.3 52.5 50.9 52.4 51.7 52.4 52 52.3 52.4 52.3 52.9 52.3 53.2 52.4 53.2 52.3 53.5 52.3 53.6 52.5 54.4 52.3 54.5 52 54.8 52 55.5 52 55.9S52 56.7 51.9 57.1C51.9 57.5 51.7 57.9 51.7 58.2 51.6 59.2 51.7 60.1 51.7 61.1V61.3C51.6 61.9 51.7 63.1 51.7 64 51.7 64.3 51.6 64.5 51.6 64.7 51.6 65 51.7 65.3 51.7 65.6 51.8 66.5 51.8 67.6 51.8 68.6 51.8 69.4 51.8 70.3 51.7 71 51.6 71.3 51.7 71.8 51.6 72.3 51.6 72.6 51.5 72.9 51.4 73.1 51.2 73.8 51.1 74.8 51.1 75.8 51 75.9 50.9 75.9 50.8 76L50.7 76.2C50.6 76.3 50.4 76.2 50.3 76.3 50.1 76.4 49.8 76.6 49.3 76.5 49.1 76.5 48.6 76.1 48.2 76H48L47.7 75.9C47.6 75.7 47.4 75.7 47.2 75.5L46.8 75.1C46.4 74.8 46.2 74.6 46.1 74.3 45.9 73.9 46 73.5 46 73 45.9 71.9 45.9 70.9 45.9 69.6 45.9 69.6 46 69.6 46 69.5 46 69.5 45.9 69.5 45.9 69.4V69.1C45.9 67.8 45.9 66.5 46 65.1 46 64.9 46.1 64.7 46.1 64.5 46.2 62.6 45.9 60.3 46.1 58.3 46.2 57.4 46.2 56.6 46.2 55.7 46.2 53.8 46 51.9 46.2 50.3 46.3 49.4 46.7 48.6 46.2 47.8 45.8 47.6 45.5 48.1 45.2 48.1 45.1 48.1 45 48.3 44.9 48.3S44.8 48.4 44.7 48.4 44.6 48.6 44.5 48.6H44.3V48.7C44.2 48.7 44.1 48.7 44 48.8L43.9 49C43.8 49.1 43.7 49 43.6 49.1L43.5 49.3C43.4 49.4 43.3 49.3 43.2 49.4S43 49.8 42.8 49.9C42.7 50 42.6 49.9 42.5 50L42.4 50.2C42.3 50.3 42.2 50.2 42.1 50.3S41.8 50.7 41.6 50.8C41.5 50.9 41.3 51 41.2 51.1S41.1 51.3 41 51.3H40.8C40.3 51.8 40.3 52 40 52 39.8 52 39.8 52.3 39.6 52.3 39.5 52.3 39.5 52.5 39.4 52.5H39.2V52.6C38.9 52.8 38.6 52.7 38.3 52.8 38.3 52.8 38.3 52.9 38.2 52.9 38 52.9 37.4 53.3 37 53.2 37 53.2 37 53.1 36.9 53.1 36.7 53.1 36.6 53.1 36.4 53 36.3 53 36.1 53 36 52.9L35.6 52.5C35.5 52.4 35.3 52.2 35.2 52 35 52 35 52 35 51.8 35 51.7 34.9 51.7 34.9 51.7 34.8 51.3 34.8 50.2 35.1 49.7 35.1 49.6 35.2 49.7 35.2 49.6S35.5 49.2 35.6 49.1H35.8C35.9 49 35.9 48.9 36.1 48.8S36.7 48.5 36.9 48.3C37.2 48 37.3 47.7 37.7 47.5 37.8 47.5 37.8 47.4 37.9 47.4 38 47.3 38.1 47.3 38.2 47.2S38.4 47.1 38.5 47 38.8 46.9 38.8 46.9C38.9 46.8 38.9 46.6 39.1 46.6 39.2 46.6 39.3 46.4 39.4 46.4S39.6 46.2 39.7 46.2 40 45.9 40.2 45.8C40.4 45.6 40.7 45.5 41 45.3S41.9 44.7 42.4 44.3C42.5 44.3 42.4 44.2 42.5 44.2S42.7 44 42.9 44C43 44 43.1 43.8 43.2 43.8S43.5 43.7 43.6 43.6C44.2 43.2 45.2 42.9 44.7 42 44.7 41.9 44.6 42 44.6 41.9 44.6 41.7 44 41.3 43.8 41.1L43.2 40.5C42.9 40.3 42.6 40.3 42.4 40.1 42.3 39.8 41.9 39.5 41.7 39.2 41.6 39.1 41.5 38.9 41.4 38.7 41.3 38.6 41 38.3 40.8 38.2 40.7 38.1 40.3 37.8 40.1 37.7 40 37.7 39.9 37.7 39.8 37.6L39.7 37.4C39.6 37.3 39.5 37.3 39.3 37.2 39.2 37.1 39.1 37.1 39 37L38.8 36.8C38.6 36.7 38.4 36.5 38.2 36.4L38.1 36.2C38 36.1 37.9 36.1 37.7 36L37.6 35.8C37.5 35.7 37.4 35.7 37.2 35.6L37.1 35.4C37 35.3 36.8 35.3 36.7 35.2L36.3 34.8C36.2 34.7 36.3 34.6 36.2 34.5 36.2 34.5 36 34.5 36 34.4 35.9 34.2 35.8 34.1 35.7 33.9 35.6 33.8 35.4 33.7 35.3 33.6S35.3 33.4 35.2 33.3 34.7 33 34.6 32.8C34.5 32.7 34.6 32.6 34.5 32.5L34.3 32.4C34.2 32.3 34.2 32.2 34.2 32.1L34.1 31.7C33.8 31.5 34 29.6 34.1 29.2 34.1 29.1 34.2 29.2 34.2 29.1S34.4 28.9 34.5 28.8 34.7 28.6 34.9 28.5C35 28.5 35 28.4 35.1 28.4S35.5 28.1 35.7 28.1C35.8 28.1 35.9 27.9 36 27.9S36.3 27.7 36.6 27.7C37.6 27.6 38.3 28.3 39.4 28.1L39.7 28.4C40.2 28.8 40.7 29.4 41.3 29.9 41.6 30.1 41.8 30.4 42.1 30.6 42.2 30.7 42.3 30.7 42.4 30.8 42.4 30.8 42.8 31.2 42.9 31.2L43.1 31.3 43.2 31.5H43.4C43.5 31.6 43.5 31.7 43.6 31.8H43.8C43.9 31.9 43.9 32 44.1 32.1S44.6 32.4 44.8 32.6C44.9 32.7 45 32.7 45.1 32.8L45.2 33H45.4C45.5 33.1 45.5 33.2 45.6 33.3H45.8C45.9 33.4 46.2 33.8 46.5 33.8 46.9 33.3 46.8 32.8 46.9 32.1 47 30.4 46.8 28 47.1 26.4 47.1 26.2 47.2 25.9 47.3 25.7 47.3 25.6 47.3 25.4 47.4 25.3 47.4 25.2 47.6 25.2 47.6 25.1 47.8 24.8 48.1 24.5 48.4 24.3 48.5 24.2 48.6 24 48.7 24 48.8 23.9 49.1 23.9 49.3 23.9 49.4 23.9 49.5 23.7 49.5 23.7H49.8C50.1 23.6 50.3 23.6 50.9 23.7 51.2 23.7 51.4 23.7 51.6 23.8 51.6 23.8 51.6 23.9 51.7 23.9S52.6 24.6 52.6 24.8C52.6 24.8 52.7 24.9 52.7 25 52.8 25.2 52.8 25.3 52.9 25.5 52.9 25.6 53 25.7 53 25.8 53.1 26.1 53.3 27.5 53.2 28.2 53.1 28.7 53.1 29.9 53.1 30.8 52.8 32.1 52.8 33.8 52.9 35.3" fill="#F4743B" data-fill-palette-color="accent"></path>
    </svg>
  </g>
</svg>
